public/img/header-telegram.svg

<svg width="24" height="24" viewBox="0 0 24 24" fill="none" xmlns="http://www.w3.org/2000/svg">
<path d="M19.1258 3.86174C18.5753 4.07924 2.94977 10.6672 2.94977 10.6672C2.94977 10.6672 2.19302 10.926 2.25302 11.4037C2.31302 11.8815 2.93027 12.1005 2.93027 12.1005L6.95177 13.4542C6.95177 13.4542 8.16602 17.436 8.40527 18.192C8.64452 18.9487 8.83577 18.9667 8.83577 18.9667C9.05777 19.0635 9.26102 18.909 9.26102 18.909L11.8598 16.5397L15.9105 19.6455C17.0055 20.1232 17.4038 19.128 17.4038 19.128L20.1945 4.82999C20.442 3.72299 19.707 3.63299 19.1258 3.86174Z" stroke="white" stroke-width="2" stroke-miterlimit="10"/>
<path d="M17.1443 7.32301C17.1645 6.98476 16.6928 7.22626 16.6928 7.22626L6.86926 13.311C6.86926 13.311 8.16601 17.436 8.40526 18.1928C8.64376 18.9495 8.97076 19.0785 8.97076 19.0785L9.70426 14.4105C9.70426 14.4105 16.647 7.94026 16.9455 7.66126C17.244 7.38301 17.1443 7.32301 17.1443 7.32301Z" fill="white"/>
</svg>

<svg width="24" height="24" fill="none" xmlns="http://www.w3.org/2000/svg"><path d="M19.126 3.862c-.55.217-16.176 6.805-16.176 6.805s-.757.259-.697.737c.06.478.677.697.677.697l4.022 1.353s1.214 3.982 1.453 4.738c.24.757.43.775.43.775.223.097.426-.058.426-.058l2.599-2.37 4.05 3.106c1.096.478 1.494-.517 1.494-.517l2.79-14.298c.248-1.107-.487-1.197-1.068-.968z" stroke="#fff" stroke-width="2" stroke-miterlimit="10"/><path d="M17.144 7.323c.02-.338-.451-.097-.451-.097l-9.824 6.085 1.536 4.882c.239.756.566.885.566.885l.733-4.667s6.943-6.47 7.241-6.75c.299-.278.2-.338.2-.338z" fill="#fff"/></svg>
